assets/images/laptop.svg

<?xml version="1.0" encoding="UTF-8" standalone="no"?>
<svg width="59px" height="39px" viewBox="0 0 59 39" version="1.1" xmlns="http://www.w3.org/2000/svg" xmlns:xlink="http://www.w3.org/1999/xlink">
    <!-- Generator: Sketch 46 (44423) - http://www.bohemiancoding.com/sketch -->
    <title>laptop</title>
    <desc>Created with Sketch.</desc>
    <defs>
        <polygon id="path-1" points="0.0069140625 39 0.0069140625 0.110877907 58.9998848 0.110877907 58.9998848 39"></polygon>
    </defs>
    <g id="Empress" stroke="none" stroke-width="1" fill="none" fill-rule="evenodd">
        <g id="Home_Desktop" transform="translate(-1064.000000, -52.000000)">
            <g id="laptop" transform="translate(1064.000000, 52.000000)">
                <g id="Group-4">
                    <mask id="mask-2" fill="white">
                        <use xlink:href="#path-1"></use>
                    </mask>
                    <g id="Clip-2"></g>
                    <path d="M47.456627,25.6609797 C47.456627,26.3508488 48.0251934,26.9101134 48.7263945,26.9101134 C49.4274805,26.9101134 49.9960469,26.3508488 49.9960469,25.6609797 L49.9960469,6.79314244 C49.9960469,6.10315988 49.4274805,5.54389535 48.7263945,5.54389535 L10.2736055,5.54389535 C9.57251953,5.54389535 9.00395312,6.10315988 9.00395312,6.79314244 L9.00395312,25.6609797 C9.00395312,26.3508488 9.57251953,26.9101134 10.2736055,26.9101134 C10.9748066,26.9101134 11.543373,26.3508488 11.543373,25.6609797 L11.543373,8.04238953 L47.456627,8.04238953 L47.456627,25.6609797" id="Fill-1" fill="#D9DC58" mask="url(#mask-2)"></path>
                    <path d="M56.7144414,33.4533837 C56.7144414,35.2719855 55.2106328,36.7514913 53.3622734,36.7514913 L5.63772656,36.7514913 C3.78936719,36.7514913 2.28555859,35.2719855 2.28555859,33.4533837 L2.28555859,32.3705669 L22.2675449,32.3705669 C22.7615547,34.0134419 24.309498,35.2155262 26.1372305,35.2155262 L32.8625391,35.2155262 C34.6903867,35.2155262 36.2383301,34.0133285 36.7323398,32.3705669 L56.7144414,32.3705669 L56.7144414,33.4533837 Z M6.02088086,3.88707558 C6.02088086,3.1825814 6.60362109,2.60925872 7.3196875,2.60925872 L51.680082,2.60925872 C52.3963789,2.60925872 52.9788887,3.1825814 52.9788887,3.88707558 L52.9788887,30.1220581 L35.7859199,30.1220581 C35.7049102,30.1193372 35.6213652,30.1262529 35.5383965,30.1420116 C35.0005977,30.2438198 34.6117969,30.7070581 34.6117969,31.2459157 C34.6117969,32.1949535 33.827166,32.9669041 32.8626543,32.9669041 L26.1373457,32.9669041 C25.1727187,32.9669041 24.3882031,32.1949535 24.3882031,31.2459157 C24.3882031,30.6163605 23.8580098,30.1084535 23.2189199,30.1218314 L6.02088086,30.1218314 L6.02088086,3.88707558 Z M57.8572207,30.1220581 L55.5185391,30.1220581 L55.5185391,3.88707558 C55.5185391,1.80488372 53.7965918,0.110877907 51.6803125,0.110877907 L7.3196875,0.110877907 C5.20317773,0.110877907 3.48146094,1.80488372 3.48146094,3.88707558 L3.48146094,30.1220581 L1.1427793,30.1220581 C0.511525391,30.1220581 0,30.6253169 0,31.2462558 L0,33.4533837 C0,36.5118227 2.52904883,39 5.63772656,39 L53.3621582,39 C56.4708359,39 58.9998848,36.5118227 58.9998848,33.4533837 L58.9998848,31.2462558 C59,30.6253169 58.4884746,30.1220581 57.8572207,30.1220581 L57.8572207,30.1220581 Z" id="Fill-3" fill="#D9DC58" mask="url(#mask-2)"></path>
                </g>
                <path d="M31.6113258,14.2653957 C32.1295581,13.7472882 32.1295581,12.906899 31.6113258,12.388671 C31.0929732,11.870443 30.2529383,11.870443 29.7344652,12.388671 L21.3886742,20.7346344 C20.8704419,21.2528624 20.8704419,22.0931312 21.3886742,22.6113591 C21.6478505,22.8705333 21.9873571,23 22.326984,23 C22.666611,23 23.0061176,22.8704129 23.2652939,22.6113591 L31.6113258,14.2653957" id="Fill-5" fill="#D9DC58"></path>
                <path d="M34.726526,17.3899526 L31.3899663,20.7265155 C30.8700112,21.2464523 30.8700112,22.0896877 31.3899663,22.6098661 C31.6500647,22.8699554 31.9909,23 32.3317352,23 C32.6725705,23 33.0132849,22.8699554 33.2733833,22.6098661 L36.609943,19.273424 C37.130019,18.7533664 37.130019,17.910131 36.609943,17.3899526 C36.0897462,16.8700158 35.2467228,16.8700158 34.726526,17.3899526" id="Fill-6" fill="#D9DC58"></path>
            </g>
        </g>
    </g>
</svg>

<svg width="59" height="39" viewBox="0 0 59 39" xmlns="http://www.w3.org/2000/svg" xmlns:xlink="http://www.w3.org/1999/xlink"><title>laptop</title><defs><path id="a" d="M.007 39V.11H59V39z"/></defs><g fill="none" fill-rule="evenodd"><mask id="b" fill="#fff"><use xlink:href="#a"/></mask><path d="M47.457 25.661c0 .69.568 1.25 1.27 1.25.7 0 1.269-.56 1.269-1.25V6.793c0-.69-.569-1.25-1.27-1.25H10.274c-.701 0-1.27.56-1.27 1.25v18.868c0 .69.569 1.25 1.27 1.25.7 0 1.27-.56 1.27-1.25V8.042h35.913v17.619" fill="#D9DC58" mask="url(#b)"/><path d="M56.714 33.453c0 1.819-1.503 3.298-3.352 3.298H5.638c-1.849 0-3.352-1.479-3.352-3.298v-1.082h19.982c.494 1.642 2.041 2.845 3.87 2.845h6.725a4.037 4.037 0 0 0 3.87-2.845h19.981v1.082zM6.021 3.887A1.29 1.29 0 0 1 7.32 2.61h44.36a1.29 1.29 0 0 1 1.299 1.278v26.235H35.786a1.129 1.129 0 0 0-.248.02 1.13 1.13 0 0 0-.926 1.104c0 .949-.785 1.72-1.75 1.72h-6.725c-.964 0-1.749-.771-1.749-1.72 0-.63-.53-1.138-1.17-1.124H6.022V3.887zm51.836 26.235H55.52V3.887c0-2.082-1.722-3.776-3.839-3.776H7.32C5.203.11 3.48 1.805 3.48 3.887v26.235H1.143c-.631 0-1.143.503-1.143 1.124v2.207C0 36.512 2.529 39 5.638 39h47.724C56.471 39 59 36.512 59 33.453v-2.207c0-.62-.512-1.124-1.143-1.124z" fill="#D9DC58" mask="url(#b)"/><path d="M31.611 14.265a1.327 1.327 0 1 0-1.877-1.876l-8.345 8.346a1.327 1.327 0 0 0 1.876 1.876l8.346-8.346m3.116 3.125l-3.337 3.337a1.332 1.332 0 0 0 1.883 1.883l3.337-3.337a1.332 1.332 0 0 0-1.883-1.883" fill="#D9DC58"/></g></svg>
